static/assets/template/assets/img/icons/essential/detailed/Filter.svg

<svg height="141" viewBox="0 0 152 141" width="152" xmlns="http://www.w3.org/2000/svg"><g fill="none" fill-rule="evenodd" transform="translate(2 2)"><path d="m148.1 10.2-60.5 60.5v62.5c0 2.9-3.3 4.6-5.7 2.8l-16.9-13c-2.6-1.9-4-5-4-8.1v-44.2l-60.5-60.5" fill-rule="nonzero"/><path d="m148.1 10.2-35.9 35.8-24.6 24.6v62.5c0 2.9-3.3 4.6-5.7 2.8l-16.9-12.9c-2.6-1.9-4-5-4-8.1v-44.2l-25.5-25.5-35-34.9h147.6z" fill-rule="nonzero"/><path d="m128.9 29.1-41.3 41.6v62.5c0 2.9-3.3 4.6-5.7 2.8l-16.9-13c-2.6-1.9-4-5-4-8.1v-44.2l-19.3-20.3c32 16.6 71.1-8.2 87.2-21.3z" fill-rule="nonzero"/><g stroke-linecap="round" stroke-linejoin="round" stroke-width="3.2"><path d="m91.5 66.7-3.9 3.9v62.5c0 2.9-3.3 4.6-5.7 2.8l-16.9-12.9c-2.6-1.9-4-5-4-8.1v-44.2l-60.5-60.5"/><path d="m124 34.3-24.1 24"/><path d="m133.7 24.6-2.3 2.3"/><path d="m148.1 10.2-2.1 2.1"/></g><path d="m49.5 19.3c-28.4-1.4-48.8-5-48.8-9.3 0-5.5 32.9-9.9 73.6-9.9 40.6 0 73.6 4.4 73.6 9.9s-32.9 9.9-73.6 9.9c-8.7 0-17.1-.2-24.8-.6" fill-rule="nonzero"/><path d="m52.8 19.5c-1.1 0-2.2-.1-3.3-.1" stroke-linecap="round" stroke-linejoin="round" stroke-width="3.2"/><path d="m44.2 19.1c-25.6-1.5-43.5-5-43.5-9 0-5.5 32.9-9.9 73.6-9.9 40.6 0 73.6 4.4 73.6 9.9s-32.9 9.9-73.6 9.9c-.7 0-1.3 0-2 0" stroke-linecap="round" stroke-linejoin="round" stroke-width="3.2"/></g></svg>

<?xml version="1.0" encoding="UTF-8"?>
<svg width="152px" height="141px" viewBox="0 0 152 141" version="1.1" xmlns="http://www.w3.org/2000/svg" xmlns:xlink="http://www.w3.org/1999/xlink">
    <!-- Generator: Sketch 51.2 (57519) - http://www.bohemiancoding.com/sketch -->
    <title>Filter</title>
    <desc>Created with Sketch.</desc>
    <defs></defs>
    <g id="Page-1" stroke="none" stroke-width="1" fill="none" fill-rule="evenodd">
        <g id="Filter" transform="translate(2.000000, 2.000000)">
            <path d="M148.1,10.2 L87.6,70.7 L87.6,133.2 C87.6,136.1 84.3,137.8 81.9,136 L65,123 C62.4,121.1 61,118 61,114.9 L61,70.7 L0.5,10.2" id="Shape" class="fill-neutral" fill-rule="nonzero"></path>
            <path d="M148.1,10.2 L112.2,46 L87.6,70.6 L87.6,133.1 C87.6,136 84.3,137.7 81.9,135.9 L65,123 C62.4,121.1 61,118 61,114.9 L61,70.7 L35.5,45.2 L0.5,10.3 L148.1,10.3 L148.1,10.2 Z" id="Shape" class="fill-primary-100" fill-rule="nonzero"></path>
            <path d="M128.9,29.1 L87.6,70.7 L87.6,133.2 C87.6,136.1 84.3,137.8 81.9,136 L65,123 C62.4,121.1 61,118 61,114.9 L61,70.7 L41.7,50.4 C73.7,67 112.8,42.2 128.9,29.1 Z" id="Shape" class="fill-primary-200" fill-rule="nonzero"></path>
            <path d="M91.5,66.7 L87.6,70.6 L87.6,133.1 C87.6,136 84.3,137.7 81.9,135.9 L65,123 C62.4,121.1 61,118 61,114.9 L61,70.7 L0.5,10.2" id="Shape" class="stroke-primary" stroke-width="3.2" stroke-linecap="round" stroke-linejoin="round"></path>
            <path d="M124,34.3 L99.9,58.3" id="Shape" class="stroke-primary" stroke-width="3.2" stroke-linecap="round" stroke-linejoin="round"></path>
            <path d="M133.7,24.6 L131.4,26.9" id="Shape" class="stroke-primary" stroke-width="3.2" stroke-linecap="round" stroke-linejoin="round"></path>
            <path d="M148.1,10.2 L146,12.3" id="Shape" class="stroke-primary" stroke-width="3.2" stroke-linecap="round" stroke-linejoin="round"></path>
            <path d="M49.5,19.3 C21.1,17.9 0.7,14.3 0.7,10 C0.7,4.5 33.6,0.1 74.3,0.1 C114.9,0.1 147.9,4.5 147.9,10 C147.9,15.5 115,19.9 74.3,19.9 C65.6,19.9 57.2,19.7 49.5,19.3" id="Shape" class="fill-primary-200" fill-rule="nonzero"></path>
            <path d="M52.8,19.5 C51.7,19.5 50.6,19.4 49.5,19.4" id="Shape" class="stroke-primary" stroke-width="3.2" stroke-linecap="round" stroke-linejoin="round"></path>
            <path d="M44.2,19.1 C18.6,17.6 0.7,14.1 0.7,10.1 C0.7,4.6 33.6,0.2 74.3,0.2 C114.9,0.2 147.9,4.6 147.9,10.1 C147.9,15.6 115,20 74.3,20 C73.6,20 73,20 72.3,20" id="Shape" class="stroke-primary" stroke-width="3.2" stroke-linecap="round" stroke-linejoin="round"></path>
        </g>
    </g>
</svg>
